X:4195
T:Miko Russel's
O:england
M:4/4
L:1/8
K:G
BE{A}EF ~G3A|B ~E3 (3Bcd gd|BE{A}EB dedB|ABAF DEFA|BE{A}EF ~G3A|
B ~E3 (3 Bcd gd|BE{A}EB dedB|ABAF DEFA|| ~B3A ~G3A|B ~G3  (3Bcd gd|
~B3A G2 FG|ABAF DEFA|~B3A ~G3A|B ~G3  (3Bcd gf |gbaf ~g3e|dedB A2 GA||


